X: 1
T: Prince Frederick's Hornpipe   [G]
T: Edgeworth Bumpkins
T: Freeford Gardens
P: Longways for as many as will
%R: hornpipe, reel
O: 1730
B: "Caledonian Country Dances" printed by John Walsh for John Johnson, London
S: 1: CCDTB http://imslp.org/wiki/Caledonian_Country_Dances_with_a_Thorough_Bass_(Various) p.9
S: 3: CCD3  http://javanese.imslp.info/files/imglnks/usimg/6/61/IMSLP173105-PMLP149069-caledoniancountr00ingl.pdf p.9
Z: 2013 John Chambers <jc:trillian.mit.edu>
N: The 2nd part has initial repeat but no final repeat.
M: C
L: 1/8
K: G
% - - - - - - - - - - - - - - - - - - - - - - - - -
V: 1
d2 |\
"G"B3A G2B2 | "D7"A2GF "G"G2g2 | "D7"f2ed "C"e2dc | "G"B3A G2B2 |\
"D7"A2GF "G"G2B2 | "D7"A2GF "(G)"GABc | "D/f#"d2c2- "C/e"c2B2 | "D7"A6 :|
|: d2 |\
"C"e2dc "G"Bcd2 | G2AB "C"c4 | "Am"cde2 A2e2 | "D7"abc'2 f4 |\
"G"g2f2- "D7"f2e2- | "C"e2d2- "D7"d2c2- | "C"c2Bc "D7"A2GF | "G"G6 :|
% - - - - - - - - - - - - - - - - - - - - - - - - -
% V: 2 clef=bass middle=d
% d2 |\
% g4 G4 | d4 B2G2 | d4 e2f2 | g4 G4 |\
% d4 B2G2 | d4 e4 | f4 g4 | d2e2 f2 :|
% |: d2 |\
% c4 g4 | b2g2 fed2 | e4 c2A2 | c'ba2 d'2d2 |\
% g2d2 e4 | f4 d4 | f2g2 d2D2 | G2d2 g2 :|
% % - - - - - - - - - - - - - - - - - - - - - - - - -
% %%begintext align
% %% First Cu. Hey on the contrary sides, then on your own sides,
% %% and cast off and turn contrary Corners,
% %% First Cu. whole figure at the bottom, then at the top,
% %% lead thro' the Man's side and turn in the middle,
% %% then thro' the Wo. side and turn in the middle.
% %%endtext
